images_sukapura_svg/cmd/32/open.svg

<svg viewBox="0 0 32 32" xmlns="http://www.w3.org/2000/svg" xmlns:xlink="http://www.w3.org/1999/xlink"><linearGradient id="a" gradientUnits="userSpaceOnUse" x1="13" x2="13" y1="10" y2="26"><stop offset="0" stop-color="#68caf8"/><stop offset=".5" stop-color="#70cef9"/><stop offset=".71428573" stop-color="#79d3fb"/><stop offset=".9285714" stop-color="#67c1ed"/><stop offset="1" stop-color="#67bfea"/></linearGradient><path d="m19.603826 6.4999999c-.324636.0000601-.635955.1240384-.865493.3446692l-4.728087 3.6553309h-10.510246c-.6760366.000065-.9999324.35028-1 1l-.033898 15h1.2241232 22.0342168.775558v-13-6c-.000068-.6497199-.323963-.9999351-1-1z" fill="#94ddff" fill-rule="evenodd" stroke="#15b0f5"/><path d="m2.4667969 26.5h1.2226562 22.0351559.775391l3.732422-11.832031c.36461-1.168055.361939-1.097558-.91211-1.167969h-2.820312-19.1347656c-1.2500514.0041-1.2623375-.002914-1.5664063 1.166016l-2.2988281 8.833984z" fill="url(#a)" stroke="#15b0f5"/><g fill="#3bc1f1"><path d="m3 23-.171875.5h.2929688 23.2246092l.445313-.005859.15625-.494141h-.603516-23.2246094z"/><path d="m2.6542969 24.001953-.171875.5h.0175781 23.224609l.484375-.003906.169922-.496094h-.658203z"/><path d="m2.3105469 25.001953-.171875.5h.3613281 23.224609l.433594-.003906.15625-.496094h-.59375-23.2246092z"/></g></svg>

<?xml version="1.0" encoding="UTF-8" standalone="no"?>
<svg
   xmlns:dc="http://purl.org/dc/elements/1.1/"
   xmlns:cc="http://creativecommons.org/ns#"
   xmlns:rdf="http://www.w3.org/1999/02/22-rdf-syntax-ns#"
   xmlns:svg="http://www.w3.org/2000/svg"
   xmlns="http://www.w3.org/2000/svg"
   xmlns:xlink="http://www.w3.org/1999/xlink"
   xmlns:sodipodi="http://sodipodi.sourceforge.net/DTD/sodipodi-0.dtd"
   xmlns:inkscape="http://www.inkscape.org/namespaces/inkscape"
   viewBox="0 0 32 32"
   version="1.1"
   id="svg6"
   sodipodi:docname="open.svg"
   inkscape:version="0.92.3 (2405546, 2018-03-11)"
   inkscape:export-filename="/home/rizmut/Dokumen/Rizmut/Github/libreoffice-style-calibre/images_calibre/cmd/32/open.png"
   inkscape:export-xdpi="96"
   inkscape:export-ydpi="96">
  <metadata
     id="metadata12">
    <rdf:RDF>
      <cc:Work
         rdf:about="">
        <dc:format>image/svg+xml</dc:format>
        <dc:type
           rdf:resource="http://purl.org/dc/dcmitype/StillImage" />
        <dc:title></dc:title>
      </cc:Work>
    </rdf:RDF>
  </metadata>
  <defs
     id="defs10">
    <linearGradient
       inkscape:collect="always"
       id="linearGradient892">
      <stop
         style="stop-color:#68caf8;stop-opacity:1"
         offset="0"
         id="stop888" />
      <stop
         id="stop900"
         offset="0.5"
         style="stop-color:#70cef9;stop-opacity:1;" />
      <stop
         id="stop896"
         offset="0.71428573"
         style="stop-color:#79d3fb;stop-opacity:1" />
      <stop
         style="stop-color:#67c1ed;stop-opacity:1;"
         offset="0.9285714"
         id="stop898" />
      <stop
         style="stop-color:#67bfea;stop-opacity:1"
         offset="1"
         id="stop890" />
    </linearGradient>
    <linearGradient
       inkscape:collect="always"
       xlink:href="#linearGradient892"
       id="linearGradient857"
       x1="13"
       y1="10"
       x2="13"
       y2="26"
       gradientUnits="userSpaceOnUse" />
  </defs>
  <sodipodi:namedview
     pagecolor="#ffffff"
     bordercolor="#666666"
     borderopacity="1"
     objecttolerance="10"
     gridtolerance="10"
     guidetolerance="10"
     inkscape:pageopacity="0"
     inkscape:pageshadow="2"
     inkscape:window-width="1366"
     inkscape:window-height="692"
     id="namedview8"
     showgrid="true"
     inkscape:zoom="14.75"
     inkscape:cx="16.916167"
     inkscape:cy="13.593694"
     inkscape:window-x="0"
     inkscape:window-y="0"
     inkscape:window-maximized="1"
     inkscape:current-layer="svg6">
    <inkscape:grid
       type="xygrid"
       id="grid822"
       spacingx="0.5"
       spacingy="0.5"
       empspacing="2" />
  </sodipodi:namedview>
  <path
     id="path846"
     d="M 19.603826,6.4999999 C 19.27919,6.50006 18.967871,6.6240383 18.738333,6.8446691 L 14.010246,10.5 H 3.5 c -0.6760366,6.5e-5 -0.9999324,0.35028 -1,1 l -0.033898,15 H 3.6902252 25.724442 26.5 v -13 -6 c -6.8e-5,-0.6497199 -0.323963,-0.9999351 -1,-1 z"
     inkscape:connector-curvature="0"
     style="fill:#94ddff;fill-opacity:1;fill-rule:evenodd;stroke:#15b0f5;stroke-opacity:1"
     sodipodi:nodetypes="ccccccccccccc" />
  <path
     d="M 2.4667969,26.5 H 3.6894531 25.724609 26.5 L 30.232422,14.667969 C 30.597032,13.499914 30.594361,13.570411 29.320312,13.5 H 26.5 7.3652344 C 6.115183,13.5041 6.1028969,13.497086 5.7988281,14.666016 L 3.5,23.5 Z"
     id="path2"
     inkscape:connector-curvature="0"
     sodipodi:nodetypes="cccccsccccc"
     style="fill:url(#linearGradient857);fill-opacity:1;stroke:#15b0f5;stroke-opacity:1" />
  <path
     style="opacity:1;fill:#3bc1f1;fill-opacity:1;stroke:none;stroke-width:1.10548079;stroke-linecap:square;stroke-linejoin:round;stroke-miterlimit:4;stroke-dasharray:none;stroke-dashoffset:0;stroke-opacity:1"
     d="M 3 23 L 2.828125 23.5 L 3.1210938 23.5 L 26.345703 23.5 L 26.791016 23.494141 L 26.947266 23 L 26.34375 23 L 3.1191406 23 L 3 23 z "
     id="rect907" />
  <path
     style="opacity:1;fill:#3bc1f1;fill-opacity:1;stroke:none;stroke-width:1.10548079;stroke-linecap:square;stroke-linejoin:round;stroke-miterlimit:4;stroke-dasharray:none;stroke-dashoffset:0;stroke-opacity:1"
     d="M 2.6542969 24.001953 L 2.4824219 24.501953 L 2.5 24.501953 L 25.724609 24.501953 L 26.208984 24.498047 L 26.378906 24.001953 L 25.720703 24.001953 L 2.6542969 24.001953 z "
     id="path865" />
  <path
     style="opacity:1;fill:#3bc1f1;fill-opacity:1;stroke:none;stroke-width:1.10548079;stroke-linecap:square;stroke-linejoin:round;stroke-miterlimit:4;stroke-dasharray:none;stroke-dashoffset:0;stroke-opacity:1"
     d="M 2.3105469 25.001953 L 2.1386719 25.501953 L 2.5 25.501953 L 25.724609 25.501953 L 26.158203 25.498047 L 26.314453 25.001953 L 25.720703 25.001953 L 2.4960938 25.001953 L 2.3105469 25.001953 z "
     id="path867" />
</svg>
